icons/svg/seamark_big/landmark_cross.svg

<?xml version="1.0" encoding="UTF-8" standalone="no"?>
<svg
   xmlns:dc="http://purl.org/dc/elements/1.1/"
   xmlns:cc="http://creativecommons.org/ns#"
   xmlns:rdf="http://www.w3.org/1999/02/22-rdf-syntax-ns#"
   xmlns:svg="http://www.w3.org/2000/svg"
   xmlns="http://www.w3.org/2000/svg"
   xmlns:sodipodi="http://sodipodi.sourceforge.net/DTD/sodipodi-0.dtd"
   xmlns:inkscape="http://www.inkscape.org/namespaces/inkscape"
   width="1060"
   height="1060"
   id="svg2"
   version="1.1"
   inkscape:version="0.48.4 r9939"
   sodipodi:docname="landmark_cross.svg">
  <defs
     id="defs13">
    <inkscape:path-effect
       effect="gears"
       id="path-effect3774"
       is_visible="true"
       teeth="6"
       phi="-1.2" />
    <inkscape:path-effect
       effect="bend_path"
       id="path-effect3772"
       is_visible="false"
       bendpath="m 95.790098,316.51174 c 144.429032,-206.42506 223.313032,-11.7428 339.548092,0"
       prop_scale="1.19"
       scale_y_rel="false"
       vertical="false"
       bendpath-nodetypes="cc" />
  </defs>
  <sodipodi:namedview
     pagecolor="#ffffff"
     bordercolor="#666666"
     borderopacity="1"
     objecttolerance="10"
     gridtolerance="10"
     guidetolerance="10"
     inkscape:pageopacity="0"
     inkscape:pageshadow="2"
     inkscape:window-width="1920"
     inkscape:window-height="1004"
     id="namedview11"
     showgrid="false"
     inkscape:zoom="0.28771931"
     inkscape:cx="771.68081"
     inkscape:cy="699.52448"
     inkscape:window-x="1680"
     inkscape:window-y="0"
     inkscape:window-maximized="1"
     inkscape:current-layer="svg2"
     inkscape:snap-object-midpoints="true"
     inkscape:snap-center="true" />
  <metadata
     id="metadata2975">image/svg+xmlen<rdf:RDF>
  <cc:Work
     rdf:about="">
    <dc:format>image/svg+xml</dc:format>
    <dc:type
       rdf:resource="http://purl.org/dc/dcmitype/StillImage" />
    <dc:title />
  </cc:Work>
</rdf:RDF>
</metadata>
  <path
     style="font-size:medium;font-style:normal;font-variant:normal;font-weight:normal;font-stretch:normal;text-indent:0;text-align:start;text-decoration:none;line-height:normal;letter-spacing:normal;word-spacing:normal;text-transform:none;direction:ltr;block-progression:tb;writing-mode:lr-tb;text-anchor:start;baseline-shift:baseline;opacity:0.372;color:#000000;fill:#e4e4e4;fill-opacity:1;fill-rule:nonzero;stroke:#a35151;stroke-width:0;stroke-linecap:round;stroke-linejoin:miter;stroke-miterlimit:4;stroke-opacity:1;stroke-dashoffset:0;marker:none;visibility:visible;display:inline;overflow:visible;enable-background:accumulate;font-family:Sans;-inkscape-font-specification:Sans"
     d="m 494.46875,218.33841 c -9.56331,0.002 -19.06697,3.68921 -25.82925,10.0215 -6.76228,6.33229 -10.7,15.23165 -10.702,24.18686 l 0,86.12078 -88.33419,0 c -8.30478,0.002 -16.55776,3.68921 -22.43012,10.0215 -5.87237,6.33229 -9.29188,15.23165 -9.29362,24.18686 l 0,26.95115 c 0.002,8.95521 3.42125,17.85457 9.29362,24.18686 5.87236,6.33229 14.12534,10.01962 22.43012,10.0215 l 88.33419,0 0,244.98919 c -6.5567,4.82209 -12.35194,10.46859 -17.125,16.8847 l -37.4375,0 c -9.56331,0.002 -19.06697,3.68921 -25.82925,10.0215 -6.76228,6.33229 -10.7,15.23165 -10.702,24.18686 l 0,21.59604 c 0.002,8.95521 3.93972,17.85457 10.702,24.18686 6.76228,6.33229 16.26594,10.01962 25.82925,10.02149 l 37.53125,0 C 456.1958,806.3827 481.47302,819.75 509.875,819.75 c 28.41396,0 53.73395,-13.35221 69.03125,-33.82794 l 37.46875,0 c 9.56331,-0.002 19.06697,-3.6892 25.82925,-10.02149 6.76228,-6.33229 10.7,-15.23165 10.702,-24.18686 l 0,-21.59604 c -0.002,-8.95521 -3.93972,-17.85457 -10.702,-24.18686 -6.76228,-6.33229 -16.26594,-10.01962 -25.82925,-10.0215 l -37.40625,0 c -4.7716,-6.41246 -10.57309,-12.06585 -17.125,-16.8847 l 0,-244.98919 88.33419,0 c 8.30478,-0.002 16.55776,-3.68921 22.43012,-10.0215 5.87237,-6.33229 9.29188,-15.23165 9.29362,-24.18686 l 0,-26.95115 c -0.002,-8.95521 -3.42125,-17.85457 -9.29362,-24.18686 -5.87236,-6.33229 -14.12534,-10.01962 -22.43012,-10.0215 l -88.33419,0 0,-86.12078 c -0.002,-8.95521 -3.93972,-17.85457 -10.702,-24.18686 -6.76228,-6.33229 -16.26594,-10.01962 -25.82925,-10.0215 z M 509.875,735.26795 c 2.50479,0 6.03125,3.30222 6.03125,5.64774 0,2.34552 -3.48157,5.61848 -6.03125,5.61848 -2.54968,0 -6,-3.23093 -6,-5.61848 0,-2.38756 3.49521,-5.64774 6,-5.64774 z"
     id="path3199"
     inkscape:connector-curvature="0"
     sodipodi:nodetypes="cscccsccscccccsccsccsccsccscccccsccscccsccsssss" />
  <path
     sodipodi:type="arc"
     style="color:#000000;fill:none;stroke:#000000;stroke-width:30.33652288;stroke-linecap:butt;stroke-linejoin:miter;stroke-miterlimit:4;stroke-opacity:1;stroke-dasharray:none;stroke-dashoffset:0;marker:none;visibility:visible;display:inline;overflow:visible;enable-background:accumulate"
     id="path2985"
     sodipodi:cx="510.26483"
     sodipodi:cy="737.74365"
     sodipodi:rx="69.120766"
     sodipodi:ry="69.120766"
     d="m 579.3856,737.74365 a 69.120766,69.120766 0 1 1 -138.24153,0 69.120766,69.120766 0 1 1 138.24153,0 z"
     transform="matrix(0.56558888,0,0,0.56558888,221.05031,318.17685)" />
  <path
     style="font-size:medium;font-style:normal;font-variant:normal;font-weight:normal;font-stretch:normal;text-indent:0;text-align:start;text-decoration:none;line-height:normal;letter-spacing:normal;word-spacing:normal;text-transform:none;direction:ltr;block-progression:tb;writing-mode:lr-tb;text-anchor:start;baseline-shift:baseline;color:#000000;fill:#000000;fill-opacity:1;stroke:none;stroke-width:30.00000191;marker:none;visibility:visible;display:inline;overflow:visible;enable-background:accumulate;font-family:Sans;-inkscape-font-specification:Sans"
     d="m 403.14276,723.91311 0,23.04878 67.30005,0 0,-23.04878 z m 145.69568,0 0,23.04878 67.30005,0 0,-23.04878 z"
     id="path3754"
     inkscape:connector-curvature="0"
     sodipodi:nodetypes="cccccccccc" />
  <rect
     style="fill:none"
     y="209.23727"
     x="249.02544"
     width="487.45749"
     height="487.45749"
     id="rect3" />
  <rect
     style="fill:none"
     y="209.23727"
     x="249.02544"
     width="487.45749"
     height="487.45749"
     id="rect3-8" />
  <path
     style="fill:none;stroke:#000000;stroke-width:29.51004219;stroke-linecap:butt;stroke-linejoin:miter;stroke-miterlimit:4;stroke-opacity:1;stroke-dasharray:none"
     d="m 509.65042,696.27118 0,-441.39345"
     id="path3860"
     inkscape:connector-curvature="0"
     sodipodi:nodetypes="cc" />
  <rect
     style="fill:none"
     y="286.47861"
     x="-412.29581"
     width="487.45749"
     height="487.45749"
     id="rect3-5" />
  <rect
     style="fill:none"
     y="286.47861"
     x="-412.29581"
     width="487.45749"
     height="487.45749"
     id="rect3-8-8" />
  <path
     style="color:#000000;fill:none;stroke:#000000;stroke-width:27.52241707;stroke-linecap:butt;stroke-linejoin:miter;stroke-miterlimit:4;stroke-opacity:1;stroke-dasharray:none;stroke-dashoffset:0;marker:none;visibility:visible;display:inline;overflow:visible;enable-background:accumulate"
     d="m 372.12462,385.64063 275.05161,0"
     id="path3010"
     inkscape:connector-curvature="0" />
</svg>

<svg width="1060" height="1060" viewBox="0 0 1060 1060" fill="none" xmlns="http://www.w3.org/2000/svg">
<g clip-path="url(#clip0)">
<path opacity="0.372" d="M494.469 218.338C484.906 218.34 475.402 222.028 468.64 228.36C461.878 234.692 457.94 243.592 457.938 252.547V338.668H369.604C361.299 338.67 353.046 342.357 347.173 348.689C341.301 355.021 337.882 363.921 337.88 372.876V399.827C337.882 408.782 341.301 417.682 347.173 424.014C353.046 430.346 361.299 434.034 369.604 434.035H457.938V679.025C451.381 683.847 445.586 689.493 440.813 695.909H403.375C393.812 695.911 384.308 699.598 377.546 705.931C370.784 712.263 366.846 721.162 366.844 730.118V751.714C366.846 760.669 370.784 769.568 377.546 775.901C384.308 782.233 393.812 785.92 403.375 785.922H440.907C456.196 806.383 481.473 819.75 509.875 819.75C538.289 819.75 563.609 806.398 578.907 785.922H616.375C625.939 785.92 635.442 782.233 642.205 775.901C648.967 769.568 652.905 760.669 652.907 751.714V730.118C652.905 721.162 648.967 712.263 642.205 705.931C635.442 699.598 625.939 695.911 616.375 695.909H578.969C574.197 689.497 568.396 683.843 561.844 679.025V434.035H650.178C658.483 434.033 666.736 430.346 672.608 424.014C678.481 417.682 681.9 408.782 681.902 399.827V372.876C681.9 363.921 678.481 355.021 672.608 348.689C666.736 342.357 658.483 338.669 650.178 338.668H561.844V252.547C561.842 243.592 557.904 234.692 551.142 228.36C544.38 222.028 534.876 218.34 525.313 218.338H494.469ZM509.875 735.268C512.38 735.268 515.907 738.57 515.907 740.916C515.907 743.261 512.425 746.534 509.875 746.534C507.326 746.534 503.875 743.303 503.875 740.916C503.875 738.528 507.371 735.268 509.875 735.268Z" fill="#E4E4E4"/>
<path d="M548.745 735.437C548.745 740.571 547.735 745.655 545.771 750.399C543.806 755.143 540.927 759.453 537.297 763.084C533.666 766.715 529.356 769.596 524.613 771.561C519.869 773.526 514.785 774.537 509.651 774.537C504.516 774.537 499.432 773.526 494.688 771.561C489.945 769.596 485.635 766.715 482.005 763.084C478.374 759.453 475.495 755.143 473.531 750.399C471.566 745.655 470.556 740.571 470.557 735.437C470.556 730.302 471.566 725.218 473.531 720.474C475.495 715.73 478.374 711.42 482.005 707.789C485.635 704.158 489.945 701.277 494.688 699.312C499.432 697.347 504.516 696.336 509.651 696.336C514.785 696.336 519.869 697.347 524.613 699.312C529.356 701.277 533.666 704.158 537.297 707.789C540.927 711.42 543.806 715.73 545.771 720.474C547.735 725.218 548.745 730.302 548.745 735.437Z" stroke="black" stroke-width="17.158"/>
<path d="M403.143 723.913V746.962H470.443V723.913H403.143ZM548.838 723.913V746.962H616.138V723.913H548.838Z" fill="black"/>
<path d="M509.65 696.271V254.878" stroke="black" stroke-width="29.51"/>
<path d="M372.125 385.641H647.177" stroke="black" stroke-width="27.5224"/>
</g>
<defs>
<clipPath id="clip0">
<path d="M0 0H1060V1060H0V0Z" fill="white"/>
</clipPath>
</defs>
</svg>
